!!!!SEGMENT: pl-cz--i-168--002_zebrowski-marcin-jozef--sonata-pro-processione-in-es.krn
!!!cenid: 17xx:2318
!!!COM: Żebrowski, Marcin Józef
!!!COM-rismid: pe30020322
!!!CDT: 1702-1770/06/29
!!!CNT: Polish
!!!OTL: Sonata pro processione in Es
!!!PDT:
!!!AGN:
!!!SMS-siglum: PL-CZ
!!!SMS-shelfmark: I-168
!!!SMS-shelfwork: 002 W
!!!SMS-variant:
!!!SMS-altvar:
!!!NIFC-rismid: 300033523
!!!URL-scan: https://repozytorium.nifc.pl/islandora/object/pl-cz%3A970/datastream/PDF/view
!!!ONB-nifc: UWAGA: w zbiorze 2 Sonaty: 1. in C (Andante 1) i 2. in Es (Adagio 2)
!!!AIN: 1 cbass 2 clrno 2 oboe 1 organ 2 violn
!!!key: E-
**kern	**dynam	**fba	**kern	**dynam	**kern	**dynam	**kern	**dynam	**kern	**dynam	**kern	**dynam	**kern	**kern
*part8	*part8	*part8	*part7	*part7	*part6	*part6	*part5	*part5	*part4	*part4	*part3	*part3	*part2	*part1
*staff8	*	*	*staff7	*	*staff6	*	*staff5	*	*staff4	*	*staff3	*	*staff2	*staff1
*I"Organo.	*	*	*I"Baſso.	*	*I"Violino Secondo.	*	*I"Violino Primo.	*	*I"Clarino Secondo	*	*I"Clarino Primo	*	*I"Hoboe Secondo.	*I"Hoboe Primo.
*I'org	*	*	*I'b	*	*I'vl II	*	*I'vl I	*	*I'clno II	*	*I'clno I	*	*I'ob II	*I'ob I
*ICklav	*	*	*ICstr	*	*ICstr	*	*ICstr	*	*ICbras	*	*ICbras	*	*ICww	*ICww
*Iorgan	*	*	*Icbass	*	*Ivioln	*	*Ivioln	*	*Iclrno	*	*Iclrno	*	*Ioboe	*Ioboe
*clefF4	*	*	*clefF4	*	*clefG2	*	*clefG2	*	*clefG2	*	*clefG2	*	*clefG2	*clefG2
*E-:	*	*	*E-:	*	*E-:	*	*E-:	*	*E-:	*	*E-:	*	*E-:	*E-:
*	*	*	*	*	*	*	*	*	*ITrd-2c-3	*	*ITrd-2c-3	*	*	*
*k[b-e-a-]	*	*	*k[b-e-a-]	*	*k[b-e-a-]	*	*k[b-e-a-]	*	*k[b-e-a-]	*	*k[b-e-a-]	*	*k[b-e-a-]	*k[b-e-a-]
*M2/2	*	*	*M2/2	*	*M2/2	*	*M2/2	*	*M2/2	*	*M2/2	*	*M2/2	*M2/2
*met(c|)	*	*	*met(c|)	*	*met(c|)	*	*met(c|)	*	*met(c|)	*	*met(c|)	*	*met(c|)	*met(c|)
=1	=1	=1	=1	=1	=1	=1	=1	=1	=1	=1	=1	=1	=1	=1
!!LO:TX:t=P:problem: 2\right	!	!	!	!	!	!	!	!	!	!	!	!	!
!LO:TX:a:B:t=Adagio	!	!	!	!	!	!	!	!	!	!	!	!	!	!
!	!	!	!LO:TX:a:B:t=Adagio.2.	!	!LO:TX:a:B:t=Adagio.2.	!	!LO:TX:a:B:t=Adagio.2.	!	!LO:TX:a:B:t=Adagio.2.	!	!LO:TX:a:B:t=Adagio.2.	!	!LO:TX:a:B:t=Adagio. 2.	!LO:TX:a:B:t=Adagio.2.
2.E-\	.	.	2.E-\	.	4r	.	(16e-/KL	.	2e-/	.	2e-/	.	2e-/	2g/
.	.	.	.	.	.	.	8.B-/J)	.	.	.	.	.	.	.
.	.	.	.	.	(16e-/KL	.	(16g/KL	.	.	.	.	.	.	.
.	.	.	.	.	8.B-/J)	.	8.e-/J)	.	.	.	.	.	.	.
.	.	.	.	.	(16g/KL	.	(16b-/KL	.	4b-`/	.	4b-`/	.	2r	2r
.	.	.	.	.	8.e-/J)	.	8.g/J)	.	.	.	.	.	.	.
4E-\	.	.	4E-\	.	(16b-/KL	.	4ee-\	.	4ee-`\	.	4ee-`\	.	.	.
.	.	.	.	.	8.g/J)	.	.	.	.	.	.	.	.	.
=2	=2	=2	=2	=2	=2	=2	=2	=2	=2	=2	=2	=2	=2	=2
!	!	!	!	!	!	!	!	!	!	!	!	!	!LO:TX:a:t=1.	!LO:TX:a:t=1.
4B-\	.	.	4B-\	.	(32f/LLL	.	(32dd\LLL	.	2b-/	.	2b-/	.	1r	1r
.	.	.	.	.	32e-/JJ	.	32cc\JJ	.	.	.	.	.	.	.
.	.	.	.	.	8.d/J)	.	8.b-\J)	.	.	.	.	.	.	.
(8BB-'/L	.	.	(8BB-'/L	.	(8d'/L	.	(8b-'\L	.	.	.	.	.	.	.
8BB-'/J	.	.	8BB-'/J	.	8d'/	.	8b-'\	.	.	.	.	.	.	.
8BB-'/L	.	.	8BB-'/L	.	8d'/	.	8b-'\	.	2r	.	2r	.	.	.
8BB-'/	.	.	8BB-'/	.	8d'/	.	8b-'\	.	.	.	.	.	.	.
8BB-'/	.	.	8BB-'/	.	8d'/	.	8b-'\	.	.	.	.	.	.	.
8BB-'/J)	.	.	8BB-'/J)	.	8d'/J)	.	8b-'\J)	.	.	.	.	.	.	.
=3	=3	=3	=3	=3	=3	=3	=3	=3	=3	=3	=3	=3	=3	=3
!	!	!	!	!	!	!	!	!	!	!	!	!	!	!
2.BB-/	.	7:6 4	2.BB-/	.	2dd\	.	2ff\	.	4r	.	4r	.	2dd\	2ff\
.	.	.	.	.	.	.	.	.	4ff\	.	4aa-\	.	.	.
.	.	.	.	.	4ee-\	.	4gg\	.	4ee-\	.	4gg\	.	4ee-\	4gg\
4BB-/	.	7 3	4BB-/	.	4ff\	.	4aa-\	.	4b-/	.	4ff\	.	4ff\	4aa-\
=4	=4	=4	=4	=4	=4	=4	=4	=4	=4	=4	=4	=4	=4	=4
!	!	!	!	!	!	!	!	!	!	!	!	!	!	!
4E-\	.	.	4E-\	.	(32b-/LLL	.	(32gg\LLL	.	[2ee-\	.	[2gg\	.	4.ee-\	4.gg\
.	.	.	.	.	32a-/JJ	.	32ff\JJ	.	.	.	.	.	.	.
.	.	.	.	.	8.g/J)	.	8.ee-\J)	.	.	.	.	.	.	.
(8E-'\L	.	.	(8E-'\L	.	(8g'/L	.	(8ee-'\L	.	.	.	.	.	.	.
8E-'\J	.	.	8E-'\J	.	8g'/	.	8ee-'\	.	.	.	.	.	8ff\	8aa-\
8E-'\L	.	.	8E-'\L	.	8g'/	.	8ee-'\	.	8ee-\L]	.	8gg\L]	.	2gg\	2bb-\
8E-'\	.	.	8E-'\	.	8g'/	.	8ee-'\	.	8ee-\	.	8gg\	.	.	.
8E-'\	.	.	8E-'\	.	8g'/	.	8ee-'\	.	8ff\	.	8aa-\	.	.	.
8E-'\J)	.	.	8E-'\J)	.	8g'/J)	.	8ee-'\J)	.	8gg\J	.	8bb-\J	.	.	.
=5	=5	=5	=5	=5	=5	=5	=5	=5	=5	=5	=5	=5	=5	=5
!	!	!	!	!	!	!	!	!	!LO:TX:t=P:problem= nad nutą zapisano "e" ołówkiem	!	!	!	!	!
2.BB-/	.	7:6 4	2.BB-/	.	2d/	.	2f/	.	2gg\	.	2.bb-\	.	2ff\	2aa-\
.	.	.	.	.	4e-/	.	4g/	.	4gg\	.	.	.	4ee-\	4gg\
4BB-/	.	7 3	4BB-/	.	4f/	.	4a-/	.	4ff\	.	4aa-\	.	4dd\	4ff\
=6	=6	=6	=6	=6	=6	=6	=6	=6	=6	=6	=6	=6	=6	=6
!	!	!	!	!	!	!	!	!	!	!	!	!	!LO:TX:a:t=t	!LO:TX:a:t=t.
4r	.	.	4r	.	(32e-/LLL	.	(32g/LLL	.	2.ee-\	.	2.gg\	.	[1ee-	1gg
.	.	.	.	.	32d/JJ	.	32f/JJ	.	.	.	.	.	.	.
.	.	.	.	.	8.c/J)	.	8.e-/J)	.	.	.	.	.	.	.
(8AAn'/L	.	7 5	(8AAn'/L	.	(8c'/L	.	(8e-'/L	.	.	.	.	.	.	.
8AA'/J	.	.	8AA'/J	.	8c'/	.	8e-'/	.	.	.	.	.	.	.
8AA'/L	.	.	8AA'/L	.	8c'/	.	8e-'/	.	.	.	.	.	.	.
8AA'/	.	.	8AA'/	.	8c'/	.	8e-'/	.	.	.	.	.	.	.
8AA'/	.	.	8AA'/	.	8c'/	.	8e-'/	.	4ee-\	.	4gg\	.	.	.
8AA'/J)	.	.	8AA'/J)	.	8c'/J)	.	8e-'/J)	.	.	.	.	.	.	.
=7	=7	=7	=7	=7	=7	=7	=7	=7	=7	=7	=7	=7	=7	=7
.	.	.	.	.	.	.	.	.	.	.	.	.	.	8qqgg/
4BB-/	.	5 4	4BB-/	.	2B-/	.	2B-/	.	2b-/	.	2ff\	.	8ee-\L]	4.ff\
.	.	.	.	.	.	.	.	.	.	.	.	.	8dd\J	.
!	!	!	!	!LO:DY:t=pia&colon;	!	!	!	!	!	!	!	!	!	!
!	!LO:DY:t=pia&colon;	!	!	!	!	!	!	!	!	!	!	!	!	!
4BB-/	p	 3	4BB-/	p	.	.	.	.	.	.	.	.	[4ff\	.
.	.	.	.	.	.	.	.	.	.	.	.	.	.	8dd\
4BB-/	.	6 5	4BB-/	.	2r	.	2r	.	2r	.	2r	.	8ff\L]	4.gg\
.	.	.	.	.	.	.	.	.	.	.	.	.	8ee-\J	.
4BB-/	.	6 4	4BB-/	.	.	.	.	.	.	.	.	.	[4gg\	.
.	.	.	.	.	.	.	.	.	.	.	.	.	.	8ee-\
!	!	!	!	!	!	!	!LO:LB:g=original	!	!	!	!	!	!	!
!	!	!	!	!	!LO:LB:g=original	!	!	!	!	!	!	!	!	!
=8	=8	=8	=8	=8	=8	=8	=8	=8	=8	=8	=8	=8	=8	=8
!	!	!	!	!	!LO:TX:a:t=3.	!	!LO:TX:a:t=3.	!	!LO:TX:a:t=3.	!	!LO:TX:a:t=3.	!	!	!
4BB-/	.	7 6	4BB-/	.	1r	.	1r	.	1r	.	1r	.	8gg\L]	4.aa-\
.	.	.	.	.	.	.	.	.	.	.	.	.	8ff\J	.
4BB-/	.	7 5	4BB-/	.	.	.	.	.	.	.	.	.	[4aa-\	.
.	.	.	.	.	.	.	.	.	.	.	.	.	.	8ff\
4BB-/	.	8 7	4BB-/	.	.	.	.	.	.	.	.	.	8aa-\L]	4.bb-\
.	.	.	.	.	.	.	.	.	.	.	.	.	8gg\J	.
4BB-/	.	8 6	4BB-/	.	.	.	.	.	.	.	.	.	4bb-\	.
.	.	.	.	.	.	.	.	.	.	.	.	.	.	8gg\
!LO:LB:g=original	!	!	!	!	!	!	!	!	!	!	!	!	!	!
=9	=9	=9	=9	=9	=9	=9	=9	=9	=9	=9	=9	=9	=9	=9
!	!	!	!	!	!	!	!	!	!	!	!	!	!LO:TX:t=P:problem= problem klamry łukowej	!LO:TX:t=P:problem= problem klamry łukowej
4r	.	.	4r	.	1r	.	1r	.	1r	.	1r	.	12aa-\L	12ff\L
.	.	.	.	.	.	.	.	.	.	.	.	.	12gg\	12gg\
.	.	.	.	.	.	.	.	.	.	.	.	.	12ff\J	12aa-\J
4BB-/	.	7 5	4BB-/	.	.	.	.	.	.	.	.	.	2ff\	2aa-\
4BB-/	.	.	4BB-/	.	.	.	.	.	.	.	.	.	.	.
4BB-/	.	6 4	4BB-/	.	.	.	.	.	.	.	.	.	4ee-\	4gg\
=10	=10	=10	=10	=10	=10	=10	=10	=10	=10	=10	=10	=10	=10	=10
4B-\	.	6 4	4B-\	.	1r	.	1r	.	1r	.	1r	.	(4ee-\	(4gg\
4BB-/	.	5 3	4BB-/	.	.	.	.	.	.	.	.	.	8dd\L)	8ff\L)
.	.	.	.	.	.	.	.	.	.	.	.	.	8cc`\J	8ee-`\J
4r	.	.	4r	.	.	.	.	.	.	.	.	.	8b-`/L	8dd`\L
.	.	.	.	.	.	.	.	.	.	.	.	.	8a-`/	8cc`\
!	!	!	!	!LO:DY:t=for	!	!	!	!	!	!	!	!	!	!
4D/	.	6 3	4D/	f	.	.	.	.	.	.	.	.	8g`/	8b-`\
.	.	.	.	.	.	.	.	.	.	.	.	.	8f`/J	8a-`\J
!	!	!	!	!	!	!	!	!	!	!	!	!	!	!LO:LB:g=original
!	!	!	!	!	!	!	!	!	!	!	!	!	!LO:LB:g=original	!
!	!	!	!	!LO:LB:g=original	!	!	!	!	!	!	!	!	!	!
=11	=11	=11	=11	=11	=11	=11	=11	=11	=11	=11	=11	=11	=11	=11
!	!	!	!	!LO:DY:t=for	!	!	!	!	!	!	!	!	!	!
!	!LO:DY:t=for	!	!	!	!	!	!	!	!	!	!	!	!	!
2E-\	f	.	2E-\	f	2g/	.	(16e-/KL	.	4r	.	4r	.	2e-/	2g/
.	.	.	.	.	.	.	8.g/J)	.	.	.	.	.	.	.
.	.	.	.	.	.	.	(16b-\KL	.	4gg\	.	4bb-\	.	.	.
.	.	.	.	.	.	.	8.dd\J)	.	.	.	.	.	.	.
4r	.	.	4r	.	4r	.	(16ee-\KL	.	4gg\	.	4bb-\	.	[2ee-\	2bb-\
.	.	.	.	.	.	.	8.gg\J)	.	.	.	.	.	.	.
4G\	.	6	4G\	.	4e-/	.	(16b-/KL	.	4gg\	.	4bb-\	.	.	.
.	.	.	.	.	.	.	8.g/J)	.	.	.	.	.	.	.
=12	=12	=12	=12	=12	=12	=12	=12	=12	=12	=12	=12	=12	=12	=12
.	.	.	.	.	.	.	.	.	8qqgg/	.	.	.	.	8qqbb-/
4F\	.	7	4F\	.	4c/	.	(16a-/KL	.	1ff	.	1aa-	.	4ee-\]	2.aa-\
.	.	.	.	.	.	.	8.f/J)	.	.	.	.	.	.	.
4BB-/	.	7	4BB-/	.	4d/	.	16d/KL	.	.	.	.	.	4dd\	.
.	.	.	.	.	.	.	8.B-/J	.	.	.	.	.	.	.
.	.	.	.	.	.	.	8qqB-/	.	.	.	.	.	.	.
4C/	.	6	4C/	.	4e-/	.	2A-/	.	.	.	.	.	4cc\	.
4D/	.	6 5	4D/	.	4f/	.	.	.	.	.	.	.	4b-\	8gg\L
.	.	.	.	.	.	.	.	.	.	.	.	.	.	8ff\J
!	!	!	!	!	!	!	!	!	!LO:LB:g=original	!	!	!	!	!
=13	=13	=13	=13	=13	=13	=13	=13	=13	=13	=13	=13	=13	=13	=13
2E-\	.	.	2E-\	.	2B-/	.	(16G/KL 16e-	.	4ee-\	.	4gg\	.	2ee-\	2gg\
.	.	.	.	.	.	.	8.g/J)	.	.	.	.	.	.	.
.	.	.	.	.	.	.	(16b-\KL	.	4gg\	.	4bb-\	.	.	.
.	.	.	.	.	.	.	8.dd\J)	.	.	.	.	.	.	.
.	.	.	.	.	.	.	.	.	.	.	.	.	.	16qqgg\LL
.	.	.	.	.	.	.	.	.	.	.	.	.	.	16qqaa-\JJ
4r	.	.	4r	.	4r	.	(16ee-\KL	.	4gg\	.	4bb-\	.	[2ee-\	2bb-\
.	.	.	.	.	.	.	8.gg\J)	.	.	.	.	.	.	.
4G\	.	6	4G\	.	4e-/	.	(16b-/KL	.	4gg\	.	4bb-\	.	.	.
.	.	.	.	.	.	.	8.g/J)	.	.	.	.	.	.	.
=14	=14	=14	=14	=14	=14	=14	=14	=14	=14	=14	=14	=14	=14	=14
.	.	.	.	.	.	.	.	.	.	.	8qqbb-/	.	.	8qqbb-/
4F\	.	7	4F\	.	4c/	.	(16a-/KL	.	1ff	.	1aa-	.	4ee-\]	2.aa-\
.	.	.	.	.	.	.	8.f/J)	.	.	.	.	.	.	.
4BB-/	.	7	4BB-/	.	4d/	.	(16d/KL	.	.	.	.	.	4dd\	.
.	.	.	.	.	.	.	8.B-/J)	.	.	.	.	.	.	.
.	.	.	.	.	.	.	8qqB-/	.	.	.	.	.	.	.
4C/	.	6	4C/	.	4e-/	.	2A-/	.	.	.	.	.	4cc\	.
4D/	.	6 5	4D/	.	4f/	.	.	.	.	.	.	.	4b-\	8gg\L
.	.	.	.	.	.	.	.	.	.	.	.	.	.	8ff\J
=15	=15	=15	=15	=15	=15	=15	=15	=15	=15	=15	=15	=15	=15	=15
!	!	!	!	!	!	!	!LO:TX:t=P:problem= problem klamry łukowej	!	!	!	!	!	!LO:TX:t=P:problem= problem klamry łukowej	!LO:TX:t=P:problem= problem klamry łukowej
4E-\	.	.	4E-\	.	4e-/	.	12G/L	.	4ee-\	.	4gg\	.	12ee-\L	12gg\L
.	.	.	.	.	.	.	12e-/	.	.	.	.	.	12dd\	12ff\
.	.	.	.	.	.	.	12b-/J	.	.	.	.	.	12ee-\J	12gg\J
!	!	!	!	!	!	!	!	!	!	!	!	!	!	!LO:TX:t=P:problem= problem klamry łukowej
.	.	.	.	.	.	.	8qqdd/	.	.	.	.	.	.	.
4A-\	.	6 5	4A-\	.	2e-/	.	8cc\L	.	4ff\	.	4aa-\	.	8ff\L	12aa-\L
.	.	.	.	.	.	.	.	.	.	.	.	.	.	12gg\
.	.	.	.	.	.	.	8qqb-/	.	.	.	.	.	.	.
.	.	.	.	.	.	.	8a-\J	.	.	.	.	.	8cc\J	.
.	.	.	.	.	.	.	.	.	.	.	.	.	.	12ff\J
!	!	!	!	!	!	!	!LO:TX:a:t=t	!	!	!	!LO:TX:a:t=t.	!	!LO:TX:a:t=t.	!LO:TX:a:t=t.
.	.	.	.	.	.	.	8qqg/	.	.	.	.	.	8qqcc/	8qqgg/
4B-\	.	6 4	4B-\	.	.	.	2f/	.	2b-/	.	2ff\	.	2dd\	2ff\
!	!	!	!	!	!LO:TX:a:t=t.	!	!	!	!	!	!	!	!	!
4BB-/	.	7 3	4BB-/	.	4d/	.	.	.	.	.	.	.	.	.
=16	=16	=16	=16	=16	=16	=16	=16	=16	=16	=16	=16	=16	=16	=16
4E-\	.	.	4E-\	.	(8e-/L	.	(8e-/L	.	2g/	.	2ee-\	.	2ee-\	2ee-\
.	.	.	.	.	8d/)	.	8d/)	.	.	.	.	.	.	.
4F\	.	.	4F\	.	(8e-/	.	(8e-/	.	.	.	.	.	.	.
*	*	*	*	*	*	*	*custos:e	*	*	*	*	*	*	*
.	.	.	.	.	8d/J)	.	8d/J)	.	.	.	.	.	.	.
!	!	!	!	!	!	!	!LO:LB:g=original	!	!	!	!	!	!	!
4G\	.	6	4G\	.	(16e-/KL	.	(16e-/KL	.	2r	.	2r	.	2r	2r
.	.	.	.	.	8.g/J)	.	8.g/J)	.	.	.	.	.	.	.
4E-\	.	-7r	4E-\	.	(16B-/KL	.	(16B-/KL	.	.	.	.	.	.	.
.	.	.	.	.	8.d-X/J)	.	8.d-X/J)	.	.	.	.	.	.	.
!	!	!	!	!	!	!	!	!	!	!	!LO:LB:g=original	!	!	!
=17	=17	=17	=17	=17	=17	=17	=17	=17	=17	=17	=17	=17	=17	=17
!	!	!	!	!	!	!	!	!	!LO:TX:a:t=1.	!	!LO:TX:a:t=1.	!	!LO:TX:a:t=3.	!LO:TX:a:t=3.
4A-\	.	.	4A-\	.	4.c/	.	4.c/	.	1r	.	1r	.	1r	1r
*custos:B	*	*	*	*	*	*	*	*	*	*	*	*	*	*
4F\	.	.	4F\	.	.	.	.	.	.	.	.	.	.	.
!LO:LB:g=original	!	!	!	!	!	!	!	!	!	!	!	!	!	!
.	.	.	.	.	8f/	.	8f/	.	.	.	.	.	.	.
!	!	!	!	!	!LO:TX:a:t=t.	!	!LO:TX:a:t=t.	!	!	!	!	!	!	!
4B-\	.	.	4B-\	.	2d/	.	2d/	.	.	.	.	.	.	.
4BB-/	.	.	4BB-/	.	.	.	.	.	.	.	.	.	.	.
=18	=18	=18	=18	=18	=18	=18	=18	=18	=18	=18	=18	=18	=18	=18
4E-\	.	.	4E-\	.	4e-/	.	4e-/	.	2r	.	2r	.	1r	1r
!	!	!	!	!	!LO:TX:t=P:problem= problem klamry łukowej	!	!LO:TX:t=P:problem= problem klamry łukowej	!	!	!	!	!	!	!
4r	.	.	4r	.	12gg\L	.	12bb-\L	.	.	.	.	.	.	.
.	.	.	.	.	12ff\	.	12aa-\	.	.	.	.	.	.	.
.	.	.	.	.	12gg\J	.	12bb-\J	.	.	.	.	.	.	.
!	!	!	!	!	!LO:LB:g=original	!	!	!	!	!	!	!	!	!
4c\	.	5	4c\	.	4r	.	4r	.	4ee-\	.	4gg\	.	.	.
!	!	!	!	!	!LO:TX:t=P:problem= problem klamry łukowej	!	!LO:TX:t=P:problem= problem klamry łukowej	!	!	!	!	!	!	!
4r	.	.	4r	.	12ee-\L	.	12gg\L	.	4r	.	4r	.	.	.
.	.	.	.	.	12dd\	.	12ff\	.	.	.	.	.	.	.
.	.	.	.	.	12ee-\J	.	12gg\J	.	.	.	.	.	.	.
=19	=19	=19	=19	=19	=19	=19	=19	=19	=19	=19	=19	=19	=19	=19
4A-\	.	6	4A-\	.	4r	.	4r	.	4ff\	.	4aa-\	.	1r	1r
!	!	!	!	!	!LO:TX:t=P:problem= problem klamry łukowej	!	!LO:TX:t=P:problem= problem klamry łukowej	!	!	!	!	!	!	!
4r	.	.	4r	.	12ff\L	.	12aa-\L	.	4r	.	4r	.	.	.
.	.	.	.	.	12ee-\	.	12gg\	.	.	.	.	.	.	.
.	.	.	.	.	12ff\J	.	12aa-\J	.	.	.	.	.	.	.
4B-\	.	.	4B-\	.	4r	.	4r	.	4b-/	.	4ff\	.	.	.
!	!	!	!	!	!LO:TX:t=P:problem= problem klamry łukowej	!	!LO:TX:t=P:problem= problem klamry łukowej	!	!	!	!	!	!	!
4r	.	.	4r	.	12dd\L	.	12ff\L	.	4r	.	4r	.	.	.
.	.	.	.	.	12cc\	.	12ee-\	.	.	.	.	.	.	.
.	.	.	.	.	12dd\J	.	12ff\J	.	.	.	.	.	.	.
=20	=20	=20	=20	=20	=20	=20	=20	=20	=20	=20	=20	=20	=20	=20
!	!	!	!	!	!	!LO:DY:t=p&colon;	!	!	!	!	!	!	!	!
4E-\	.	.	4E-\	.	4ee-\	p	4gg\	.	4ee-\	.	4gg\	.	2r	2r
!	!	!	!	!	!LO:TX:t=P:problem= problem klamry łukowej	!	!LO:TX:t=P:problem= problem klamry łukowej	!	!	!	!	!	!	!
!	!	!	!	!	!	!	!	!LO:DY:t=p&colon;	!	!	!	!	!	!
4r	.	.	4r	.	12g/L	.	12b-/L	p	4r	.	4r	.	.	.
.	.	.	.	.	12f/	.	12a-/	.	.	.	.	.	.	.
.	.	.	.	.	12g/J	.	12b-/J	.	.	.	.	.	.	.
!	!LO:DY:t=pia&colon;	!	!	!LO:DY:t=pia&colon;	!	!	!	!	!	!	!	!	!	!
4C/	p	5	4C/	p	4r	.	4r	.	2r	.	2r	.	4ee-\	4gg\
!	!	!	!	!	!LO:TX:t=P:problem= problem klamry łukowej	!	!LO:TX:t=P:problem= problem klamry łukowej	!	!	!	!	!	!	!
4r	.	.	4r	.	12e-/L	.	12g/L	.	.	.	.	.	4r	4r
.	.	.	.	.	12d/	.	12f/	.	.	.	.	.	.	.
.	.	.	.	.	12e-/J	.	12g/J	.	.	.	.	.	.	.
=21	=21	=21	=21	=21	=21	=21	=21	=21	=21	=21	=21	=21	=21	=21
!	!	!	!	!	!	!	!	!	!LO:TX:a:t=1.	!	!LO:TX:a:t=1.	!	!	!
4AA-/	.	6	4AA-/	.	4r	.	4r	.	1r	.	1r	.	4ff\	4aa-\
!	!	!	!	!	!LO:TX:t=P:problem= problem klamry łukowej	!	!LO:TX:t=P:problem= problem klamry łukowej	!	!	!	!	!	!	!
4r	.	.	4r	.	12f/L	.	12a-/L	.	.	.	.	.	4r	4r
.	.	.	.	.	12e-/	.	12g/	.	.	.	.	.	.	.
.	.	.	.	.	12f/J	.	12a-/J	.	.	.	.	.	.	.
4BB-/	.	.	4BB-/	.	4r	.	4r	.	.	.	.	.	4dd\	4ff\
!	!	!	!	!	!LO:TX:t=P:problem= problem klamry łukowej	!	!LO:TX:t=P:problem= problem klamry łukowej	!	!	!	!	!	!	!
4r	.	.	4r	.	12d/L	.	12f/L	.	.	.	.	.	4r	4r
.	.	.	.	.	12c/	.	12e-/	.	.	.	.	.	.	.
.	.	.	.	.	12d/J	.	12f/J	.	.	.	.	.	.	.
!	!	!	!LO:LB:g=original	!	!	!	!	!	!	!	!	!	!	!
=22	=22	=22	=22	=22	=22	=22	=22	=22	=22	=22	=22	=22	=22	=22
!	!	!	!	!	!	!	!	!LO:DY:t=for	!	!	!	!	!	!
!	!	!	!	!LO:DY:t=for	!	!	!	!	!	!	!	!	!	!
!	!LO:DY:t=for	!	!	!	!	!	!	!	!	!	!	!	!	!
2EE-/	f	.	2EE-/	f	8e-/	.	8g/	f	2gg\	.	2bb-\	.	8r	8r
!	!	!	!	!	!	!LO:DY:t=for	!	!	!	!	!	!	!	!
.	.	.	.	.	4ee-\	f	4gg\	.	.	.	.	.	4ee-\	4gg\
.	.	.	.	.	4dd\	.	4ff\	.	.	.	.	.	4dd\	4ff\
!	!	!	!	!	!	!	!LO:LB:g=original	!	!	!	!	!	!	!
2r	.	.	2r	.	.	.	.	.	2r	.	2r	.	.	.
.	.	.	.	.	4cc\	.	4ee-\	.	.	.	.	.	4cc\	4ee-\
.	.	.	.	.	[8b-/	.	[8dd\	.	.	.	.	.	[8b-/	[8dd\
=23	=23	=23	=23	=23	=23	=23	=23	=23	=23	=23	=23	=23	=23	=23
2r	.	.	2r	.	8b-/]	.	8dd\]	.	2r	.	2r	.	8b-/]	8dd\]
.	.	.	.	.	4a-/	.	4cc\	.	.	.	.	.	4a-/	4cc\
.	.	.	.	.	4g/	.	4b-/	.	.	.	.	.	4g/	4b-/
4r	.	.	4r	.	.	.	.	.	4r	.	4r	.	.	.
.	.	.	.	.	4f/	.	4a-/	.	.	.	.	.	4f/	4a-/
4BB-/	.	7	4BB-/	.	.	.	.	.	4b-/	.	4ff\	.	.	.
.	.	.	.	.	16e-/LL	.	16g/LL	.	.	.	.	.	16e-/LL	16g/LL
.	.	.	.	.	16d/JJ	.	16f/JJ	.	.	.	.	.	16d/JJ	16f/JJ
!	!	!	!	!	!	!	!	!	!	!	!	!	!	!LO:LB:g=original
!	!	!	!	!	!	!	!	!	!	!	!	!	!LO:LB:g=original	!
!	!	!	!	!	!	!	!	!	!LO:LB:g=original	!	!	!	!	!
=24	=24	=24	=24	=24	=24	=24	=24	=24	=24	=24	=24	=24	=24	=24
!	!	!	!	!	!	!	!LO:TX:t=P:problem= problem klamry łukowej	!	!	!	!	!	!	!LO:TX:t=P:problem= problem klamry łukowej
4E-\	.	.	4E-\	.	4e-/	.	12g/L	.	4.ee-\	.	4gg\	.	4e-/	12g/L
.	.	.	.	.	.	.	12f/	.	.	.	.	.	.	12f/
.	.	.	.	.	.	.	12e-/J	.	.	.	.	.	.	12e-/J
!	!	!	!	!	!	!	!	!	!	!	!	!	!	!LO:TX:t=P:problem= problem klamry łukowej
4A-\	.	6 5	4A-\	.	2e-/	.	12cc\L	.	.	.	4aa-\	.	2e-/	12cc\L
.	.	.	.	.	.	.	12b-\	.	.	.	.	.	.	12b-\
.	.	.	.	.	.	.	.	.	8ff\	.	.	.	.	.
.	.	.	.	.	.	.	12a-\J	.	.	.	.	.	.	12a-\J
4B-\	.	6 4	4B-\	.	.	.	4g/	.	4ee-\	.	4gg\	.	.	4g/
!	!	!	!	!	!LO:TX:a:t=t.	!	!LO:TX:a:t=t.	!	!	!	!LO:TX:a:t=t.	!	!LO:TX:a:t=t.	!LO:TX:a:t=t.
4BB-/	.	7 3	4BB-/	.	4d/	.	4f/	.	4b-/	.	4ff\	.	4d/	4f/
!	!	!	!	!	!LO:LB:g=original	!	!	!	!	!	!	!	!	!
=25	=25	=25	=25	=25	=25	=25	=25	=25	=25	=25	=25	=25	=25	=25
2E-\	.	.	2E-\	.	2e-/	.	4e-/	.	2g/	.	4ee-\	.	2e-/	2e-/
.	.	.	.	.	.	.	8.ee-\L	.	.	.	8.ee-\L	.	.	.
.	.	.	.	.	.	.	16b-\Jk	.	.	.	16b-\Jk	.	.	.
2r	.	.	2r	.	4r	.	4e-/	.	4r	.	4e-/	.	2r	2r
.	.	.	.	.	16ee-\KL	.	4r	.	8.ee-\L	.	4r	.	.	.
.	.	.	.	.	8.b-\J	.	.	.	.	.	.	.	.	.
.	.	.	.	.	.	.	.	.	16b-\Jk	.	.	.	.	.
=26	=26	=26	=26	=26	=26	=26	=26	=26	=26	=26	=26	=26	=26	=26
4r	.	.	4r	.	4e-/	.	4r	.	4e-/	.	4r	.	4r	4r
8.E-\L	.	.	8.E-\L	.	8.G/L	.	8.e-/L	.	8.e-/L	.	8.g/L	.	8.g/L	8.b-/L
16E-\Jk	.	.	16E-\Jk	.	16G/Jk	.	16e-/Jk	.	16e-/Jk	.	16g/Jk	.	16g/Jk	16b-/Jk
(8E-'\L	.	.	(8E-'\L	.	(8G'/L	.	(8e-'/L	.	4e-/	.	4g/	.	(8g'/L	(8b-'/L
8E-'\	.	.	8E-'\	.	8G'/	.	8e-'/	.	.	.	.	.	8g'/	8b-'/
8E-'\	.	.	8E-'\	.	8G'/	.	8e-'/	.	4e-/	.	4g/	.	8g'/	8b-'/
8E-'\J)	.	.	8E-'\J)	.	8G'/J)	.	8e-'/J)	.	.	.	.	.	8g'/J)	8b-'/J)
!LO:LB:g=original	!	!	!	!	!	!	!	!	!	!	!	!	!	!
=27	=27	=27	=27	=27	=27	=27	=27	=27	=27	=27	=27	=27	=27	=27
2E-;\	.	.	2E-;\	.	2G;</	.	2e-;</	.	2e-;</	.	2g;</	.	2g;</	2b-;</
2r	.	.	2r	.	2r	.	2r	.	2r	.	2r	.	2r	2r
!	!	!	!	!	!	!	!	!	!	!	!LO:LB:g=original	!	!	!
=28	=28	=28	=28	=28	=28	=28	=28	=28	=28	=28	=28	=28	=28	=28
!	!LO:DY:t=pia&colon;	!	!	!LO:DY:t=pia&colon;	!	!	!	!	!LO:TX:a:t=7.	!	!LO:TX:a:t=7.	!	!	!LO:TX:b:t=solo.
2.E-\	p	.	2.E-\	p	1r	.	1r	.	1r	.	1r	.	4r	4.e-/
!	!	!	!	!	!	!	!	!	!	!	!	!	!LO:TX:b:t=Solo.	!
.	.	.	.	.	.	.	.	.	.	.	.	.	4e-/	.
.	.	.	.	.	.	.	.	.	.	.	.	.	.	8g/
.	.	.	.	.	.	.	.	.	.	.	.	.	(32g/LLL	4b-/
.	.	.	.	.	.	.	.	.	.	.	.	.	32f/JJ	.
.	.	.	.	.	.	.	.	.	.	.	.	.	8.e-/J)	.
4G\	.	6	4G\	.	.	.	.	.	.	.	.	.	(32b-/LLL	4ee-\
.	.	.	.	.	.	.	.	.	.	.	.	.	32a-/JJ	.
.	.	.	.	.	.	.	.	.	.	.	.	.	8.g/J)	.
=29	=29	=29	=29	=29	=29	=29	=29	=29	=29	=29	=29	=29	=29	=29
2B-\	.	.	2B-\	.	1r	.	1r	.	1r	.	1r	.	(32f/LLL	(32dd\LLL
.	.	.	.	.	.	.	.	.	.	.	.	.	32e-/JJ	32cc\JJ
.	.	.	.	.	.	.	.	.	.	.	.	.	8.d/J)	8.b-\J)
.	.	.	.	.	.	.	.	.	.	.	.	.	(8d'/L	(8b-'\L
.	.	.	.	.	.	.	.	.	.	.	.	.	8d'/	8b-'\
4F\	.	6 4	4F\	.	.	.	.	.	.	.	.	.	8d'/	8b-'\
.	.	.	.	.	.	.	.	.	.	.	.	.	8d'/	8b-'\
4D\	.	7 3	4D\	.	.	.	.	.	.	.	.	.	8d'/	8b-'\
.	.	.	.	.	.	.	.	.	.	.	.	.	8d'/J)	8b-'\J)
=30	=30	=30	=30	=30	=30	=30	=30	=30	=30	=30	=30	=30	=30	=30
4BB-/	.	.	4BB-/	.	1r	.	1r	.	1r	.	1r	.	2dd\	2ff\
4BB-/	.	.	4BB-/	.	.	.	.	.	.	.	.	.	.	.
4BB-/	.	6 4	4BB-/	.	.	.	.	.	.	.	.	.	4ee-\	4gg\
4BB-/	.	7 3	4BB-/	.	.	.	.	.	.	.	.	.	4ff\	4aa-\
=31	=31	=31	=31	=31	=31	=31	=31	=31	=31	=31	=31	=31	=31	=31
[2E-\	.	.	[2E-\	.	1r	.	1r	.	1r	.	1r	.	(32b-/LLL	(32gg\LLL
.	.	.	.	.	.	.	.	.	.	.	.	.	32a-/JJ	32ff\JJ
*	*	*	*	*	*	*	*	*	*	*	*	*	*	*custos:aee
.	.	.	.	.	.	.	.	.	.	.	.	.	8.g/J)	8.ee-\J)
!	!	!	!	!	!	!	!	!	!	!	!	!	!	!LO:LB:g=original
.	.	.	.	.	.	.	.	.	.	.	.	.	(8g'/L	(8ee-'\L
.	.	.	.	.	.	.	.	.	.	.	.	.	8g'/	8ee-'\
8E-\L]	.	.	8E-\L]	.	.	.	.	.	.	.	.	.	8g'/	8ee-'\
8B-`\	.	.	8B-`\	.	.	.	.	.	.	.	.	.	8g'/	8ee-'\
8G`\	.	.	8G`\	.	.	.	.	.	.	.	.	.	8g'/	8ee-'\
8E-`\J	.	.	8E-`\J	.	.	.	.	.	.	.	.	.	8g'/J)	8ee-'\J)
=32	=32	=32	=32	=32	=32	=32	=32	=32	=32	=32	=32	=32	=32	=32
4BB-/	.	.	4BB-/	.	1r	.	1r	.	1r	.	1r	.	2dd\	2ff\
4BB-/	.	.	4BB-/	.	.	.	.	.	.	.	.	.	.	.
4BB-/	.	6 4	4BB-/	.	.	.	.	.	.	.	.	.	4ee-\	4gg\
4BB-/	.	7 3	4BB-/	.	.	.	.	.	.	.	.	.	4ff\	4aa-\
!	!	!	!LO:LB:g=original	!	!	!	!	!	!	!	!	!	!	!
=33	=33	=33	=33	=33	=33	=33	=33	=33	=33	=33	=33	=33	=33	=33
!	!	!	!	!	!	!	!	!	!	!	!	!	!LO:TX:a:t=t.	!LO:TX:a:t=t.
.	.	.	.	.	.	.	.	.	.	.	.	.	8qqff/	8qqaa-/
2E-\	.	.	2E-\	.	8r	.	8r	.	1r	.	1r	.	4.ee-\	4.gg\
.	.	.	.	.	8e-`/L	.	8g`/L	.	.	.	.	.	.	.
.	.	.	.	.	8f`/	.	8a`-/	.	.	.	.	.	.	.
.	.	.	.	.	8g`/J	.	8b`-/J	.	.	.	.	.	16dd\LL	16ff\LL
.	.	.	.	.	.	.	.	.	.	.	.	.	16cc\JJ	16ee-\JJ
4r	.	.	4r	.	8a-`/L	.	8cc`\L	.	.	.	.	.	(16cc/LL	(16ee-\LL
.	.	.	.	.	.	.	.	.	.	.	.	.	16b-/)	16dd\)
.	.	.	.	.	8b-`/	.	8dd`\	.	.	.	.	.	(16b-/	(16dd\
.	.	.	.	.	.	.	.	.	.	.	.	.	16a-/)	16cc\)
4BB-/	.	7	4BB-/	.	8cc`/	.	8ee-`\	.	.	.	.	.	(16a-/	(16cc\
.	.	.	.	.	.	.	.	.	.	.	.	.	16g/)	16b-\)
.	.	.	.	.	8dd`/J	.	8ff`\J	.	.	.	.	.	(16g/	(16b-\
.	.	.	.	.	.	.	.	.	.	.	.	.	16f/JJ)	16a-\JJ)
=34	=34	=34	=34	=34	=34	=34	=34	=34	=34	=34	=34	=34	=34	=34
.	.	.	.	.	.	.	.	.	.	.	.	.	8qqf/	8qqa-/
2EE-/	.	.	2EE-/	.	2ee-\	.	2gg\	.	1r	.	1r	.	2e-/	2g/
2r	.	.	2r	.	2r	.	2r	.	.	.	.	.	2r	2r
=35	=35	=35	=35	=35	=35	=35	=35	=35	=35	=35	=35	=35	=35	=35
!	!	!	!	!	!	!	!	!	!	!	!	!	!LO:TX:a:t=4.	!LO:TX:a:t=4.
2E-\	.	.	2E-\	.	2r	.	2r	.	8ee-\L	.	8gg\L	.	1r	1r
.	.	.	.	.	.	.	.	.	8ff\J	.	8aa-\J	.	.	.
.	.	.	.	.	.	.	.	.	2gg\	.	2bb-\	.	.	.
4r	.	.	4r	.	4r	.	4r	.	.	.	.	.	.	.
4D\	.	6	4D\	.	4dd\	.	4ff\	.	4b-/	.	4ff\	.	.	.
=36	=36	=36	=36	=36	=36	=36	=36	=36	=36	=36	=36	=36	=36	=36
2E-\	.	.	2E-\	.	4b-/	.	(16gg\KL	.	8ee-\L	.	8gg\L	.	1r	1r
.	.	.	.	.	.	.	8.ee-\J)	.	.	.	.	.	.	.
.	.	.	.	.	.	.	.	.	8ff\J	.	8aa-\J	.	.	.
.	.	.	.	.	4g/	.	(16dd\KL	.	2gg\	.	2bb-\	.	.	.
.	.	.	.	.	.	.	8.cc\J)	.	.	.	.	.	.	.
!	!	!	!	!	!	!	!LO:LB:g=original	!	!	!	!	!	!	!
4r	.	.	4r	.	4e-/	.	(16bn\KL	.	.	.	.	.	.	.
.	.	.	.	.	.	.	8.cc\J)	.	.	.	.	.	.	.
4B-\	.	.	4B-\	.	4d/	.	(16g/KL	.	4b-/	.	4ff\	.	.	.
.	.	.	.	.	.	.	8.b-X/J)	.	.	.	.	.	.	.
!LO:LB:g=original	!	!	!	!	!	!	!	!	!	!	!	!	!	!
=37	=37	=37	=37	=37	=37	=37	=37	=37	=37	=37	=37	=37	=37	=37
!	!	!	!	!	!	!	!LO:TX:a:t=t.	!	!	!	!	!	!	!
.	.	.	.	.	8qqe-/	.	(8qqcc/	.	8qqb-/	.	.	.	.	.
2.E-\	.	3:6	2.E-\	.	2d/	.	4.b-/	.	2ee-\	.	2gg\	.	1r	1r
.	.	.	.	.	.	.	16an/LL	.	.	.	.	.	.	.
.	.	.	.	.	.	.	16g/JJ)	.	.	.	.	.	.	.
.	.	.	.	.	2c/	.	2f/	.	4r	.	4r	.	.	.
4En\	.	7 5	4En\	.	.	.	.	.	4gg\	.	4bb-\	.	.	.
!	!	!	!	!	!LO:LB:g=original	!	!	!	!	!	!	!	!	!
!	!	!	!	!	!	!	!	!	!LO:LB:g=original	!	!	!	!	!
=38	=38	=38	=38	=38	=38	=38	=38	=38	=38	=38	=38	=38	=38	=38
!	!	!	!	!	!	!	!	!LO:DY:t=p&colon;	!	!	!	!	!	!
!	!	!	!	!	!	!LO:DY:t=p&colon;	!	!	!	!	!	!	!	!
2F\	.	6 4	2F\	.	(8f'/L	p	(8an'/L	p	1ff	.	2bb-\	.	1ff	8an/L
.	.	.	.	.	8f'/	.	8a'/	.	.	.	.	.	.	8g/J
.	.	.	.	.	.	.	.	.	.	.	.	.	.	8qqg/
.	.	.	.	.	8f'/	.	8a'/	.	.	.	.	.	.	4.a/
.	.	.	.	.	8f'/	.	8a'/	.	.	.	.	.	.	.
8r	.	.	8r	.	8f'/	.	8a'/	.	.	.	2aaX\	.	.	.
8FF`/L	.	5 n	8FF/L	.	8f'/	.	8a'/	.	.	.	.	.	.	16a/LL
.	.	.	.	.	.	.	.	.	.	.	.	.	.	16b-/JJ
!	!	!	!	!	!	!	!	!	!	!	!	!	!	!LO:TX:t=P:problem= problem klamry łukowej
8AAn`/	.	.	8AAn/	.	8f'/	.	8a'/	.	.	.	.	.	.	12cc\L
.	.	.	.	.	.	.	.	.	.	.	.	.	.	12b-\
8C`/J	.	.	8C/J	.	8f'/J)	.	8a'/J)	.	.	.	.	.	.	.
.	.	.	.	.	.	.	.	.	.	.	.	.	.	12an\J
=39	=39	=39	=39	=39	=39	=39	=39	=39	=39	=39	=39	=39	=39	=39
!	!	!	!	!	!	!	!	!	!LO:TX:a:t=8.	!	!LO:TX:a:t=8.	!	!	!
4F\	.	.	4F\	.	(8g'/L	.	(8b-'/L	.	1r	.	1r	.	1een	8b-/L
.	.	.	.	.	8g'/	.	8b-'/	.	.	.	.	.	.	8an/J
.	.	.	.	.	.	.	.	.	.	.	.	.	.	8qqa/
4F\	.	.	4F\	.	8g'/	.	8b-'/	.	.	.	.	.	.	4.b-\
.	.	.	.	.	8g'/	.	8b-'/	.	.	.	.	.	.	.
4F\	.	.	4F\	.	8g'/	.	8b-'/	.	.	.	.	.	.	.
.	.	.	.	.	8g'/	.	8b-'/	.	.	.	.	.	.	16b-\LL
.	.	.	.	.	.	.	.	.	.	.	.	.	.	16cc\JJ
!	!	!	!	!	!	!	!	!	!	!	!	!	!	!LO:TX:t=P:problem= problem klamry łukowej
4F\	.	.	4F\	.	8g'/	.	8b-'/	.	.	.	.	.	.	12dd\L
.	.	.	.	.	.	.	.	.	.	.	.	.	.	12cc\
.	.	.	.	.	8g'/J)	.	8b-'/J)	.	.	.	.	.	.	.
*	*	*	*	*	*	*	*	*	*	*	*	*	*	*custos:cc
.	.	.	.	.	.	.	.	.	.	.	.	.	.	12b-\J
!	!	!	!	!	!	!	!	!	!	!	!	!	!	!LO:LB:g=original
=40	=40	=40	=40	=40	=40	=40	=40	=40	=40	=40	=40	=40	=40	=40
!	!	!	!	!	!	!	!	!	!	!	!	!	!LO:TX:a:t=t	!
4F\	.	n7r 4 2	4F\	.	(8an'/L	.	(8cc'\L	.	1r	.	1r	.	[2ee-X\	8cc\L
.	.	.	.	.	8a'/	.	8cc'\	.	.	.	.	.	.	8bn\J
.	.	.	.	.	.	.	.	.	.	.	.	.	.	8qqb-X/
4F\	.	.	4F\	.	8a'/	.	8cc'\	.	.	.	.	.	.	4.cc\
.	.	.	.	.	8a'/	.	8cc'\	.	.	.	.	.	.	.
4F\	.	.	4F\	.	8a'/	.	8cc'\	.	.	.	.	.	8ee-\L]	.
.	.	.	.	.	8a'/	.	8cc'\	.	.	.	.	.	16ee-\L	16cc\LL
.	.	.	.	.	.	.	.	.	.	.	.	.	16dd\JJ	16dd\JJ
!	!	!	!	!	!	!	!	!	!	!	!	!	!LO:TX:t=P:problem= problem klamry łukowej	!LO:TX:t=P:problem= problem klamry łukowej
4F\	.	.	4F\	.	8a'/	.	8cc'\	.	.	.	.	.	12cc\L	12ee-\L
.	.	.	.	.	.	.	.	.	.	.	.	.	12b-\	12dd\
.	.	.	.	.	8a'/J)	.	8cc'\J)	.	.	.	.	.	.	.
.	.	.	.	.	.	.	.	.	.	.	.	.	12an\J	12cc\J
=41	=41	=41	=41	=41	=41	=41	=41	=41	=41	=41	=41	=41	=41	=41
4F\	.	-7r 4 n3	4F\	.	2b-/	.	2dd\	.	1r	.	1r	.	(8b-\L	(8dd\L
.	.	.	.	.	.	.	.	.	.	.	.	.	8cc\)	8ee-\)
4F\	.	.	4F\	.	.	.	.	.	.	.	.	.	(8cc\	(8ee-\
.	.	.	.	.	.	.	.	.	.	.	.	.	8dd\J)	8ff\J)
4F\	.	.	4F\	.	4r	.	4r	.	.	.	.	.	(8dd\L	(8ff\L
.	.	.	.	.	.	.	.	.	.	.	.	.	8ee-\)	8gg\)
4F\	.	.	4F\	.	4f/	.	4f/	.	.	.	.	.	(8ee-\	(8gg\
.	.	.	.	.	.	.	.	.	.	.	.	.	8cc\J)	8aan\J)
=42	=42	=42	=42	=42	=42	=42	=42	=42	=42	=42	=42	=42	=42	=42
2BB-/	.	.	2BB-/	.	4B-/	.	4B-/	.	1r	.	1r	.	4dd`\	4.bb-\
.	.	.	.	.	4c/	.	4c/	.	.	.	.	.	4ee-`\	.
.	.	.	.	.	.	.	.	.	.	.	.	.	.	16aan\LL
.	.	.	.	.	.	.	.	.	.	.	.	.	.	16gg\JJ
2r	.	.	2r	.	4d/	.	4d/	.	.	.	.	.	4ff`\	4ff\
.	.	.	.	.	4e-/	.	4e-/	.	.	.	.	.	4gg`\	4ee-\
=43	=43	=43	=43	=43	=43	=43	=43	=43	=43	=43	=43	=43	=43	=43
!LO:TX:a:t=2.	!	!	!LO:TX:a:t=2.	!	!	!	!	!	!	!	!	!	!LO:TX:t=P:problem= problem klamry łukowej	!LO:TX:t=P:problem= problem klamry łukowej
1r	.	.	1r	.	4b-/	.	4b-\	.	1r	.	1r	.	12b-/L	12dd\L
.	.	.	.	.	.	.	.	.	.	.	.	.	12an/	12cc\
.	.	.	.	.	.	.	.	.	.	.	.	.	12b-/J	12dd\J
!	!	!	!	!	!	!	!	!	!	!	!	!	!	!LO:TX:t=P:problem= problem klamry łukowej
.	.	.	.	.	4e-/	.	4e-/	.	.	.	.	.	8.cc\L	12ee-\L
.	.	.	.	.	.	.	.	.	.	.	.	.	.	12dd\
.	.	.	.	.	.	.	.	.	.	.	.	.	.	12cc\J
.	.	.	.	.	.	.	.	.	.	.	.	.	16g\Jk	.
!	!	!	!	!	!	!	!	!	!	!	!	!	!LO:LB:g=original	!
!	!	!	!	!	!	!	!	!	!	!	!	!	!LO:TX:a:t=t.	!LO:TX:a:t=t
.	.	.	.	.	.	.	.	.	.	.	.	.	8qqb-/	8qqb-/
.	.	.	.	.	4f/	.	4f/	.	.	.	.	.	2an/	2cc\
.	.	.	.	.	4f/	.	4f/	.	.	.	.	.	.	.
!	!	!	!LO:LB:g=original	!	!	!	!	!	!	!	!	!	!	!
=44	=44	=44	=44	=44	=44	=44	=44	=44	=44	=44	=44	=44	=44	=44
!	!	!	!	!	!LO:TX:a:t=2.	!	!LO:TX:a:t=2.	!	!	!	!	!	!	!
.	.	.	.	.	.	.	.	.	.	.	.	.	.	8qqb-/
4BB-/	.	.	4BB-/	.	1r	.	1r	.	1r	.	1r	.	4dd`\	4.bb-\
4C/	.	.	4C/	.	.	.	.	.	.	.	.	.	4ee-`\	.
.	.	.	.	.	.	.	.	.	.	.	.	.	.	16aan\LL
.	.	.	.	.	.	.	.	.	.	.	.	.	.	16gg\JJ
4D/	.	6	4D/	.	.	.	.	.	.	.	.	.	4ff`\	4ff\
4E-\	.	.	4E-\	.	.	.	.	.	.	.	.	.	4gg`\	4ee-\
=45	=45	=45	=45	=45	=45	=45	=45	=45	=45	=45	=45	=45	=45	=45
!	!	!	!	!	!	!	!	!	!	!	!	!	!LO:TX:t=P:problem= problem klamry łukowej	!LO:TX:t=P:problem= problem klamry łukowej
4B-\	.	.	4B-\	.	1r	.	1r	.	1r	.	1r	.	12b-/L	12dd\L
.	.	.	.	.	.	.	.	.	.	.	.	.	12an/	12cc\
.	.	.	.	.	.	.	.	.	.	.	.	.	12b-/J	12dd\J
!	!	!	!	!	!	!	!	!	!	!	!	!	!	!LO:TX:t=P:problem= problem klamry łukowej
4E-\	.	6	4E-\	.	.	.	.	.	.	.	.	.	8.cc\L	12ee-\L
.	.	.	.	.	.	.	.	.	.	.	.	.	.	12dd\
.	.	.	.	.	.	.	.	.	.	.	.	.	.	12cc\J
.	.	.	.	.	.	.	.	.	.	.	.	.	16g\Jk	.
!	!	!	!	!	!	!	!	!	!	!	!	!	!LO:TX:a:t=t.	!LO:TX:a:t=t
.	.	.	.	.	.	.	.	.	.	.	.	.	8qqb-/	8qqb-/
4F\	.	n	4F\	.	.	.	.	.	.	.	.	.	2an/	2cc\
4F\	.	.	4F\	.	.	.	.	.	.	.	.	.	.	.
=46	=46	=46	=46	=46	=46	=46	=46	=46	=46	=46	=46	=46	=46	=46
!	!	!	!	!	!	!	!	!LO:DY:t=for&colon;	!	!	!	!	!	!
!	!	!	!	!LO:DY:t=for	!	!	!	!	!	!	!	!	!	!
!	!LO:DY:t=for	!	!	!	!	!	!	!	!	!	!	!	!	!
2.BB-/	f	.	2.BB-/	f	4r	.	(16b-/KL	f	1r	.	1r	.	4r	4b-`\
.	.	.	.	.	.	.	8.f/J)	.	.	.	.	.	.	.
!	!	!	!	!	!	!LO:DY:t=for	!	!	!	!	!	!	!	!
.	.	.	.	.	(16b-/KL	f	(16dd\KL	.	.	.	.	.	4b-/	4dd`\
.	.	.	.	.	8.f/J)	.	8.b-\J)	.	.	.	.	.	.	.
.	.	.	.	.	(16dd\KL	.	(16ff\KL	.	.	.	.	.	4dd\	4ff`\
.	.	.	.	.	8.b-\J)	.	8.dd\J)	.	.	.	.	.	.	.
4BB-/	.	.	4BB-/	.	(16ff\KL	.	4bb-\	.	.	.	.	.	(16ff\KL	4bb-`\
*	*	*	*	*	*custos:cc	*	*	*	*	*	*	*	*	*
.	.	.	.	.	8.dd\J)	.	.	.	.	.	.	.	8.dd\J)	.
!	!	!	!	!	!	!	!LO:LB:g=original	!	!	!	!	!	!	!
!	!	!	!	!	!LO:LB:g=original	!	!	!	!	!	!	!	!	!
!	!	!	!	!	!	!	!	!	!	!	!	!	!	!LO:LB:g=original
=47	=47	=47	=47	=47	=47	=47	=47	=47	=47	=47	=47	=47	=47	=47
4F\	.	n	4F\	.	(32cc\LLL	.	(32aan\LLL	.	2.ff\	.	1bb-	.	4.cc\	4.aan\
.	.	.	.	.	32b-\JJ	.	32gg\JJ	.	.	.	.	.	.	.
.	.	.	.	.	8.an\J)	.	8.ff\J)	.	.	.	.	.	.	.
(8F'\L	.	.	(8F'\L	.	(8a'/L	.	(8ff'\L	.	.	.	.	.	.	.
8F'\J	.	.	8F'\J	.	8a'/	.	8ff'\	.	.	.	.	.	8b-/	8gg\
8F'\L	.	.	8F'\L	.	8a'/	.	8ff'\	.	.	.	.	.	2an/	2ff\
8F'\	.	.	8F'\	.	8a'/	.	8ff'\	.	.	.	.	.	.	.
8F'\	.	.	8F'\	.	8a'/	.	8ff'\	.	4ff\	.	.	.	.	.
8F'\J)	.	.	8F'\J)	.	8a'/J)	.	8ff'\J)	.	.	.	.	.	.	.
!LO:LB:g=original	!	!	!	!	!	!	!	!	!	!	!	!	!	!
=48	=48	=48	=48	=48	=48	=48	=48	=48	=48	=48	=48	=48	=48	=48
2.F\	.	7:6 n:4	2.F\	.	2a-/	.	2cc\	.	2ff\	.	2aaX\	.	2cc\	2ee-\
.	.	.	.	.	4b-/	.	4dd\	.	2r	.	2r	.	4b-/	4dd\
4F\	.	7 n	4F\	.	4cc\	.	4ee-\	.	.	.	.	.	4an/	4cc\
=49	=49	=49	=49	=49	=49	=49	=49	=49	=49	=49	=49	=49	=49	=49
4B-\	.	.	4B-\	.	(32f/LLL	.	(32dd\LLL	.	4r	.	4r	.	4.b-\	4.dd\
.	.	.	.	.	32e-/JJ	.	32cc\JJ	.	.	.	.	.	.	.
.	.	.	.	.	8.d/J)	.	8.b-\J)	.	.	.	.	.	.	.
(8BB-'/L	.	.	(8BB-'/L	.	(8d'/L	.	(8b-'/L	.	8.ff\L	.	8.ff\L	.	.	.
8BB-'/J	.	.	8BB-'/J	.	8d'/	.	8b-'/	.	.	.	.	.	8cc\	8ee-\
.	.	.	.	.	.	.	.	.	16ff\Jk	.	16ff\Jk	.	.	.
8BB-'/L	.	.	8BB-'/L	.	8d'/	.	8b-'/	.	4ff\	.	4ff\	.	2dd\	2ff\
8BB-'/	.	.	8BB-'/	.	8d'/	.	8b-'/	.	.	.	.	.	.	.
8BB-'/	.	.	8BB-'/	.	8d'/	.	8b-'/	.	4ff\	.	4ff\	.	.	.
8BB-'/J)	.	.	8BB-'/J)	.	8d'/J)	.	8b-'/J)	.	.	.	.	.	.	.
=50	=50	=50	=50	=50	=50	=50	=50	=50	=50	=50	=50	=50	=50	=50
2.D\	.	7:6 #:4	2.D\	.	2f#X/	.	2an/	.	2b-/	.	2ff\	.	2an/	2cc\
.	.	.	.	.	4g/	.	4b-/	.	2r	.	2r	.	4g/	4b-/
4D\	.	.	4D\	.	4an/	.	4cc\	.	.	.	.	.	4f#X/	4an/
=51	=51	=51	=51	=51	=51	=51	=51	=51	=51	=51	=51	=51	=51	=51
!	!	!	!	!	!	!	!	!	!LO:TX:a:t=8.	!	!LO:TX:a:t=8.	!	!	!
4G\	.	.	4G\	.	2g/	.	8b-\L	.	1r	.	1r	.	1g	2g/
.	.	.	.	.	.	.	8dd\	.	.	.	.	.	.	.
4B-\	.	6 5	4B-\	.	.	.	8gg\	.	.	.	.	.	.	.
.	.	.	.	.	.	.	8ff\J	.	.	.	.	.	.	.
.	.	.	.	.	.	.	8qqff/	.	.	.	.	.	.	.
4c\	.	.	4c\	.	8r	.	[2ee-\	.	.	.	.	.	.	[2ee-\
.	.	.	.	.	8g/L	.	.	.	.	.	.	.	.	.
4E-\	.	6 5	4E-\	.	8cc/	.	.	.	.	.	.	.	.	.
.	.	.	.	.	8b-/J	.	.	.	.	.	.	.	.	.
=52	=52	=52	=52	=52	=52	=52	=52	=52	=52	=52	=52	=52	=52	=52
.	.	.	.	.	8qqb-/	.	.	.	.	.	.	.	.	.
4F\	.	n	4F\	.	[2an/	.	8ee-\L]	.	1r	.	1r	.	1fn	2ee-\]
.	.	.	.	.	.	.	8cc\	.	.	.	.	.	.	.
4An\	.	6 5	4An\	.	.	.	8ff\	.	.	.	.	.	.	.
.	.	.	.	.	.	.	8ee-\J	.	.	.	.	.	.	.
.	.	.	.	.	.	.	8qqee-/	.	.	.	.	.	.	.
4B-\	.	.	4B-\	.	8a/L]	.	[2dd\	.	.	.	.	.	.	[2dd\
.	.	.	.	.	8f/	.	.	.	.	.	.	.	.	.
4D\	.	6 5	4D\	.	8b-/	.	.	.	.	.	.	.	.	.
.	.	.	.	.	8an/J	.	.	.	.	.	.	.	.	.
!	!	!	!	!	!	!	!	!	!	!	!	!	!LO:LB:g=original	!
!	!	!	!LO:LB:g=original	!	!	!	!	!	!	!	!	!	!	!
=53	=53	=53	=53	=53	=53	=53	=53	=53	=53	=53	=53	=53	=53	=53
.	.	.	.	.	8qqa-/	.	.	.	.	.	.	.	.	.
4E-\	.	.	4E-\	.	[2g/	.	8dd\L]	.	1r	.	1r	.	1e-	2dd\]
.	.	.	.	.	.	.	8b-\	.	.	.	.	.	.	.
4G\	.	6 5	4G\	.	.	.	8ee-\	.	.	.	.	.	.	.
.	.	.	.	.	.	.	8dd\J	.	.	.	.	.	.	.
.	.	.	.	.	.	.	8qqdd/	.	.	.	.	.	.	.
4An\	.	.	4An\	.	8g/L]	.	[2cc\	.	.	.	.	.	.	[2cc\
.	.	.	.	.	8e-/	.	.	.	.	.	.	.	.	.
4C/	.	n6 5	4C/	.	8an/	.	.	.	.	.	.	.	.	.
.	.	.	.	.	8g/J	.	.	.	.	.	.	.	.	.
!	!	!	!	!	!LO:LB:g=original	!	!	!	!	!	!	!	!	!
=54	=54	=54	=54	=54	=54	=54	=54	=54	=54	=54	=54	=54	=54	=54
4D\	.	#	4D\	.	4f#X/	.	8cc\L]	.	1r	.	1r	.	2.d/	2cc\]
.	.	.	.	.	.	.	8an\	.	.	.	.	.	.	.
4F#X\	.	6 5	4F#X\	.	[4d/	.	8dd\	.	.	.	.	.	.	.
.	.	.	.	.	.	.	8cc\J	.	.	.	.	.	.	.
.	.	.	.	.	.	.	8qqcc/	.	.	.	.	.	.	.
4G\	.	.	4G\	.	8d/L]	.	2b-\	.	.	.	.	.	.	2b-\
.	.	.	.	.	8d/	.	.	.	.	.	.	.	.	.
4GG/	.	.	4GG/	.	8g/	.	.	.	.	.	.	.	4g/	.
.	.	.	.	.	8fn/J	.	.	.	.	.	.	.	.	.
!	!	!	!	!	!	!	!LO:LB:g=original	!	!	!	!	!	!	!
!	!	!	!	!	!	!	!	!	!	!	!	!	!	!LO:LB:g=original
=55	=55	=55	=55	=55	=55	=55	=55	=55	=55	=55	=55	=55	=55	=55
!	!	!	!	!	!	!	!LO:TX:a:t=t.	!	!	!	!	!	!	!
.	.	.	.	.	.	.	.	.	.	.	.	.	.	16qqgg\
4C#X/	.	7 5	4C#X/	.	4en/	.	(8bn/	.	1r	.	1r	.	2.gg\	2.bb-\
.	.	.	.	.	.	.	4an/)	.	.	.	.	.	.	.
4C#/	.	.	4C#/	.	4e/	.	.	.	.	.	.	.	.	.
.	.	.	.	.	.	.	8gg`\	.	.	.	.	.	.	.
!	!	!	!	!	!	!	!LO:TX:a:t=t	!	!	!	!	!	!	!
4C#/	.	.	4C#/	.	4e/	.	(8b/	.	.	.	.	.	.	.
.	.	.	.	.	.	.	4an/)	.	.	.	.	.	.	.
4C#/	.	.	4C#/	.	4e/	.	.	.	.	.	.	.	8ff#X\L	8aan\L
.	.	.	.	.	.	.	8gg`\	.	.	.	.	.	8een\J	8gg\J
=56	=56	=56	=56	=56	=56	=56	=56	=56	=56	=56	=56	=56	=56	=56
4D\	.	#	4D\	.	4f#X/	.	8gg-X\L	.	1r	.	1r	.	4dd\	8ff#X\L
.	.	.	.	.	.	.	8aan\J	.	.	.	.	.	.	8aan\J
4En\	.	6	4En\	.	4g/	.	[4cc\	.	.	.	.	.	4r	[4cc\
!LO:LB:g=original	!	!	!	!	!	!	!	!	!	!	!	!	!	!
4F#X\	.	6 5	4F#X\	.	4an/	.	16cc\LL]	.	.	.	.	.	4an/	16cc\LL]
.	.	.	.	.	.	.	(16ee-\	.	.	.	.	.	.	(16ee-\
.	.	.	.	.	.	.	16dd\	.	.	.	.	.	.	16dd\
.	.	.	.	.	.	.	16cc\JJ)	.	.	.	.	.	.	16cc\JJ)
4D\	.	7 #	4D\	.	4f#X/	.	8b-/L	.	.	.	.	.	4f#X/	8b-/L
.	.	.	.	.	.	.	8an/J	.	.	.	.	.	.	8an/J
=57	=57	=57	=57	=57	=57	=57	=57	=57	=57	=57	=57	=57	=57	=57
!	!	!	!	!	!LO:TX:t=P:problem= problem klamry łukowej	!	!LO:TX:t=P:problem= problem klamry łukowej	!	!	!	!	!	!LO:TX:t=P:problem= problem klamry łukowej	!LO:TX:t=P:problem= problem klamry łukowej
4G\	.	.	4G\	.	12g/L	.	12b-/L	.	1r	.	1r	.	12g/L	12b-/L
.	.	.	.	.	12f#X/	.	12an/	.	.	.	.	.	12f#X/	12an/
.	.	.	.	.	12g/J	.	12b-/J	.	.	.	.	.	12g/J	12b-/J
!	!	!	!	!	!	!	!LO:TX:t=P:problem= problem klamry łukowej	!	!	!	!	!	!	!LO:TX:t=P:problem= problem klamry łukowej
4C/	.	n6 5	4C/	.	8an/L	.	12cc\L	.	.	.	.	.	8an/L	12cc\L
.	.	.	.	.	.	.	12b-\	.	.	.	.	.	.	12b-\
.	.	.	.	.	8en/J	.	.	.	.	.	.	.	8en/J	.
.	.	.	.	.	.	.	12an\J	.	.	.	.	.	.	12an\J
!	!	!	!	!	!LO:TX:a:t=t.	!	!LO:TX:a:t=t.	!	!	!	!	!	!LO:TX:a:t=t.	!LO:TX:a:t=t.
.	.	.	.	.	8qqg/	.	8qqb-/	.	.	.	.	.	8qqe/	8qqg/
4D\	.	#	4D/	.	2f#X/	.	2a/	.	.	.	.	.	2f#X/	2a/
4DD/	.	7	4DD/	.	.	.	.	.	.	.	.	.	.	.
!	!	!	!	!	!	!	!	!	!	!	!LO:LB:g=original	!	!	!
=58	=58	=58	=58	=58	=58	=58	=58	=58	=58	=58	=58	=58	=58	=58
4GG/	.	.	4GG/	.	2g/	.	2g/	.	4r	.	4r	.	2g/	2g/
!	!LO:DY:t=pia&colon;	!	!	!LO:DY:t=pia&colon;	!	!	!	!	!	!	!	!	!	!
4G\	p	.	4G\	p	.	.	.	.	4gg\	.	4bb-\	.	.	.
4Fn\	.	4 2	4Fn\	.	2r	.	2r	.	[2gg\	.	[2bb-\	.	4r	4r
4F\	.	.	4F\	.	.	.	.	.	.	.	.	.	4b-\	4gg\
=59	=59	=59	=59	=59	=59	=59	=59	=59	=59	=59	=59	=59	=59	=59
!	!	!	!	!	!LO:TX:a:t=2.	!	!LO:TX:a:t=2.	!	!	!	!	!	!	!
4En\	.	6 5	4En\	.	1r	.	1r	.	8gg\L]	.	8bb-\L]	.	[2b-\	[2gg\
.	.	.	.	.	.	.	.	.	8aa-\	.	8ccc\	.	.	.
4E\	.	.	4E\	.	.	.	.	.	8gg\	.	8bb-\	.	.	.
.	.	.	.	.	.	.	.	.	8ff\J	.	8aa-\J	.	.	.
4D-X/	.	6 4	4D-X/	.	.	.	.	.	[2gg\	.	[2bb-\	.	8b-/L]	8gg\L]
.	.	.	.	.	.	.	.	.	.	.	.	.	8cc/	8aa-\
4D-/	.	.	4D-/	.	.	.	.	.	.	.	.	.	8b-/	8gg\
.	.	.	.	.	.	.	.	.	.	.	.	.	8a-/J	8ff\J
=60	=60	=60	=60	=60	=60	=60	=60	=60	=60	=60	=60	=60	=60	=60
!	!	!	!	!	!	!	!	!	!	!	!	!	!	!LO:TX:a:t=t
4C/	.	7 n	4C/	.	1r	.	1r	.	8gg\L]	.	8bb-\L]	.	[1b-	1een
.	.	.	.	.	.	.	.	.	8aa-\	.	8ccc\	.	.	.
4C/	.	.	4C/	.	.	.	.	.	8gg\	.	8bb-\	.	.	.
.	.	.	.	.	.	.	.	.	8ff\J	.	8aa-\J	.	.	.
!	!	!	!LO:LB:g=original	!	!	!	!	!	!	!	!	!	!	!
4En\	.	6 5	4En\	.	.	.	.	.	4gg\	.	4bb-\	.	.	.
4C/	.	7 n	4C/	.	.	.	.	.	4gg\	.	4bb-\	.	.	.
!	!	!	!	!	!	!	!	!	!LO:LB:g=original	!	!	!	!	!
=61	=61	=61	=61	=61	=61	=61	=61	=61	=61	=61	=61	=61	=61	=61
.	.	.	.	.	.	.	.	.	8qqaa-/	.	.	.	.	.
4F\	.	4 9	4F\	.	4r	.	4r	.	4gg\	.	4bb-\	.	8b-/L]	2ff\
.	.	.	.	.	.	.	.	.	.	.	.	.	8g/J	.
4FF/	.	3 8	4FF/	.	8a-`X/L	.	8cc`\L	.	4ff\	.	4aa-\	.	4a-/	.
!	!	!	!	!	!	!	!	!	!	!	!	!	!LO:LB:g=original	!
.	.	.	.	.	8g`/J	.	8b-`\J	.	.	.	.	.	.	.
2r	.	.	2r	.	8f`/L	.	8a-`/L	.	2r	.	2r	.	2r	2r
.	.	.	.	.	8e-`/	.	8g`/	.	.	.	.	.	.	.
.	.	.	.	.	8d`/	.	8f`/	.	.	.	.	.	.	.
.	.	.	.	.	8c`/J	.	8e-`/J	.	.	.	.	.	.	.
!	!	!	!	!	!LO:LB:g=original	!	!	!	!	!	!	!	!	!
!	!	!	!	!	!	!	!	!	!	!	!	!	!	!LO:LB:g=original
=62	=62	=62	=62	=62	=62	=62	=62	=62	=62	=62	=62	=62	=62	=62
4r	.	.	4r	.	4B-/	.	4d/	.	4r	.	4r	.	2r	2r
4F\	.	.	4F\	.	4r	.	4r	.	4ff\	.	4aa-\	.	.	.
4E-X\	.	4 2	4E-X\	.	2r	.	2r	.	[2ff\	.	[2aa-\	.	4r	4r
4E-\	.	.	4E-\	.	.	.	.	.	.	.	.	.	4a-/	4ff\
=63	=63	=63	=63	=63	=63	=63	=63	=63	=63	=63	=63	=63	=63	=63
!	!	!	!	!	!LO:TX:a:t=2.	!	!LO:TX:a:t=2.	!	!	!	!	!	!	!
4D/	.	6 5	4D/	.	1r	.	1r	.	8ff\L]	.	8aa-\L]	.	[2a-/	[2ff\
.	.	.	.	.	.	.	.	.	8gg\	.	8bb-\	.	.	.
4D/	.	.	4D/	.	.	.	.	.	8ff\	.	8aa-\	.	.	.
.	.	.	.	.	.	.	.	.	8ee-\J	.	8gg\J	.	.	.
!LO:LB:g=original	!	!	!	!	!	!	!	!	!	!	!	!	!	!
4C/	.	6 4	4C/	.	.	.	.	.	[2ff\	.	[2aa-\	.	8a-/L]	8ff\L]
.	.	.	.	.	.	.	.	.	.	.	.	.	8b-/	8gg\
4C/	.	.	4C/	.	.	.	.	.	.	.	.	.	8a-/	8ff\
.	.	.	.	.	.	.	.	.	.	.	.	.	8g/J	8ee-\J
=64	=64	=64	=64	=64	=64	=64	=64	=64	=64	=64	=64	=64	=64	=64
!	!	!	!	!	!	!	!	!	!	!	!	!	!	!LO:TX:a:t=t.
.	.	.	.	.	.	.	.	.	.	.	.	.	.	8qqee-/
4BB-/	.	7	4BB-/	.	1r	.	1r	.	8ff\L]	.	8aa-\L]	.	[1a-	1dd
.	.	.	.	.	.	.	.	.	8gg\	.	8bb-\	.	.	.
4BB-/	.	.	4BB-/	.	.	.	.	.	8ff\	.	8aa-\	.	.	.
.	.	.	.	.	.	.	.	.	8ee-\J	.	8gg\J	.	.	.
4D/	.	6 5	4D/	.	.	.	.	.	4ff\	.	4aa-\	.	.	.
4BB-/	.	7	4BB-/	.	.	.	.	.	4ff\	.	4aa-\	.	.	.
=65	=65	=65	=65	=65	=65	=65	=65	=65	=65	=65	=65	=65	=65	=65
.	.	.	.	.	.	.	.	.	8qqgg/	.	8qqbb-/	.	.	.
4E-\	.	.	4E-\	.	2r	.	2r	.	4ff\	.	4aa-\	.	8a-/L]	2ee-\
.	.	.	.	.	.	.	.	.	.	.	.	.	8f/J	.
4E-\	.	.	4E-\	.	.	.	.	.	4ee-\	.	4gg\	.	4g/	.
4D-X/	.	-4r 2	4D-X/	.	[2ee-\	.	[2gg-X\	.	2r	.	2r	.	2r	2r
4D-/	.	.	4D-/	.	.	.	.	.	.	.	.	.	.	.
=66	=66	=66	=66	=66	=66	=66	=66	=66	=66	=66	=66	=66	=66	=66
!	!	!	!	!	!	!	!	!	!LO:TX:a:t=2.	!	!LO:TX:a:t=2.	!	!LO:TX:a:t=2.	!LO:TX:a:t=2.
4C-X/	.	-5	4C-X/	.	8ee-\L]	.	8gg-\L]	.	1r	.	1r	.	1r	1r
.	.	.	.	.	8ff\	.	8aa-\	.	.	.	.	.	.	.
4C-/	.	.	4C-/	.	8ee-\	.	8gg-X\	.	.	.	.	.	.	.
.	.	.	.	.	8dd\J	.	8ff\J	.	.	.	.	.	.	.
!	!	!	!	!	!	!	!LO:LB:g=original	!	!	!	!	!	!	!
4BB-/	.	-6 4	4BB-/	.	[2ee-\	.	[2gg-X\	.	.	.	.	.	.	.
4BB-/	.	.	4BB-/	.	.	.	.	.	.	.	.	.	.	.
=67	=67	=67	=67	=67	=67	=67	=67	=67	=67	=67	=67	=67	=67	=67
4AAn/	.	-7r 5	4AAn/	.	8ee-\L]	.	8gg-\L]	.	1r	.	1r	.	1r	1r
.	.	.	.	.	8ff\	.	8aa-\	.	.	.	.	.	.	.
4AA/	.	.	4AA/	.	8ee-\	.	8gg-X\	.	.	.	.	.	.	.
.	.	.	.	.	8dd\J	.	8ff\J	.	.	.	.	.	.	.
4AA/	.	.	4AA/	.	4ee-\	.	4gg-X\	.	.	.	.	.	.	.
4AA/	.	.	4AA/	.	4ee-\	.	4gg-\	.	.	.	.	.	.	.
!	!	!	!LO:LB:g=original	!	!	!	!	!	!	!	!	!	!	!
=68	=68	=68	=68	=68	=68	=68	=68	=68	=68	=68	=68	=68	=68	=68
!	!	!	!	!	!	!	!	!	!	!	!	!LO:DY:t=piano	!	!
!	!	!	!	!	!	!	!	!	!	!LO:DY:t=pia	!	!	!	!
4BB-/	.	.	4BB-/	.	8dd`\L	.	8ff`\L	.	2b-/	p	2b-/	p	1bb-	8dd\L
!	!	!	!	!	!	!	!	!LO:DY:a	!	!	!	!	!	!
!	!	!	!	!	!	!	!	!LO:DY:t=pia&colon;	!	!	!	!	!	!
.	.	.	.	.	(8B-'/	.	(8d'/	p	.	.	.	.	.	8cc\J
.	.	.	.	.	.	.	.	.	.	.	.	.	.	8qqdd/
4BB-/	.	.	4BB-/	.	8B-'/	.	8d'/	.	.	.	.	.	.	4.dd\
.	.	.	.	.	8B-'/J	.	8d'/J	.	.	.	.	.	.	.
4BB-/	.	.	4BB-/	.	8B-'/L	.	8d'/L	.	2r	.	2r	.	.	.
.	.	.	.	.	8B-'/	.	8d'/	.	.	.	.	.	.	16dd\LL
.	.	.	.	.	.	.	.	.	.	.	.	.	.	16ee-\JJ
!	!	!	!	!	!	!	!	!	!	!	!	!	!	!LO:TX:t=P:problem= problem klamry łukowej
4BB-/	.	.	4BB-/	.	8B-'/	.	8d'/	.	.	.	.	.	.	12ff\L
.	.	.	.	.	.	.	.	.	.	.	.	.	.	12ee-\
.	.	.	.	.	8B-'/J)	.	8d'/J)	.	.	.	.	.	.	.
.	.	.	.	.	.	.	.	.	.	.	.	.	.	12dd\J
=69	=69	=69	=69	=69	=69	=69	=69	=69	=69	=69	=69	=69	=69	=69
4BB-/	.	n7r 4 2	4BB-/	.	8c`/L	.	8e-`/L	.	2b-/	.	2b-/	.	1aan	8ee-\L
.	.	.	.	.	(8c'/	.	(8e-'/	.	.	.	.	.	.	8dd\J
.	.	.	.	.	.	.	.	.	.	.	.	.	.	8qqdd/
4BB-/	.	.	4BB-/	.	8c'/	.	8e-'/	.	.	.	.	.	.	4.ee-\
.	.	.	.	.	8c'/J	.	8e-'/	.	.	.	.	.	.	.
4BB-/	.	.	4BB-/	.	8c'/L	.	8e-'/	.	2r	.	2r	.	.	.
.	.	.	.	.	8c'/	.	8e-'/	.	.	.	.	.	.	16ee-\LL
.	.	.	.	.	.	.	.	.	.	.	.	.	.	16ff\JJ
*custos:BB	*	*	*	*	*	*	*	*	*	*	*	*	*	*
!	!	!	!	!	!	!	!	!	!	!	!	!	!	!LO:TX:t=P:problem= problem klamry łukowej
4BB-/	.	.	4BB-/	.	8c'/	.	8e-'/	.	.	.	.	.	.	12gg\L
.	.	.	.	.	.	.	.	.	.	.	.	.	.	12ff\
.	.	.	.	.	8c'/J)	.	8e-'/J)	.	.	.	.	.	.	.
.	.	.	.	.	.	.	.	.	.	.	.	.	.	12ee-\J
!LO:LB:g=original	!	!	!	!	!	!	!	!	!	!	!	!	!	!
=70	=70	=70	=70	=70	=70	=70	=70	=70	=70	=70	=70	=70	=70	=70
!	!	!	!	!	!	!	!	!	!	!	!	!	!LO:TX:a:t=t.	!
4BB-/	.	-7r 5 3	4BB-/	.	8d`/L	.	8f`/L	.	2b-/	.	2b-/	.	1aa-X	8ff\L
.	.	.	.	.	(8d'/	.	(8f'/	.	.	.	.	.	.	8een\J
.	.	.	.	.	.	.	.	.	.	.	.	.	.	8qqee/
4BB-/	.	.	4BB-/	.	8d'/	.	8f'/	.	.	.	.	.	.	4.ff\
.	.	.	.	.	8d'/J	.	8f'/	.	.	.	.	.	.	.
4BB-/	.	.	4BB-/	.	8d'/L	.	8f'/	.	2r	.	2r	.	.	.
.	.	.	.	.	8d'/	.	8f'/	.	.	.	.	.	.	16ff\LL
.	.	.	.	.	.	.	.	.	.	.	.	.	.	16gg\JJ
!	!	!	!	!	!	!	!	!	!	!	!	!	!	!LO:TX:t=P:problem= problem klamry łukowej
4BB-/	.	.	4BB-/	.	8d'/	.	8f'/	.	.	.	.	.	.	12aa-\L
.	.	.	.	.	.	.	.	.	.	.	.	.	.	12gg\
.	.	.	.	.	8d'/J)	.	8f'/J)	.	.	.	.	.	.	.
*	*	*	*	*	*	*	*	*	*	*	*	*	*	*custos:ee
.	.	.	.	.	.	.	.	.	.	.	.	.	.	12ff\J
!	!	!	!	!	!LO:LB:g=original	!	!	!	!	!	!	!	!	!
!	!	!	!	!	!	!	!	!	!	!	!	!	!	!LO:LB:g=original
!	!	!	!	!	!	!	!	!	!LO:LB:g=original	!	!	!	!	!
=71	=71	=71	=71	=71	=71	=71	=71	=71	=71	=71	=71	=71	=71	=71
!	!	!	!	!	!	!	!	!	!LO:TX:a:t=1.	!	!LO:TX:a:t=1.	!	!	!
.	.	.	.	.	.	.	.	.	.	.	.	.	.	(8qqff/
4r	.	.	4r	.	2e-/	.	2e-/	.	1r	.	1r	.	4gg\	4.ee-\
4E-\	.	6	4E-\	.	.	.	.	.	.	.	.	.	4g/	.
.	.	.	.	.	.	.	.	.	.	.	.	.	.	16dd\LL
.	.	.	.	.	.	.	.	.	.	.	.	.	.	16cc\JJ)
4D/	.	6	4D/	.	2r	.	2r	.	.	.	.	.	4f/	4b-/
4C/	.	n6	4C/	.	.	.	.	.	.	.	.	.	4e-/	4an/
=72	=72	=72	=72	=72	=72	=72	=72	=72	=72	=72	=72	=72	=72	=72
!	!	!	!	!	!LO:TX:a:t=5.	!	!LO:TX:a:t=5.	!	!	!	!	!	!	!
.	.	.	.	.	.	.	.	.	.	.	.	.	.	8qqa-/
2BB-/	.	.	2BB-/	.	1r	.	1r	.	8r	.	8r	.	2d/	2b-/
.	.	.	.	.	.	.	.	.	8b-/L	.	8ff\L	.	.	.
.	.	.	.	.	.	.	.	.	8b-/	.	8ff\	.	.	.
.	.	.	.	.	.	.	.	.	8ee-/J	.	8gg\J	.	.	.
4r	.	.	4r	.	.	.	.	.	2ff\	.	2aa-\	.	8r	8r
.	.	.	.	.	.	.	.	.	.	.	.	.	8ff\L	8aa-\L
4BB-/	.	-7r	4BB-/	.	.	.	.	.	.	.	.	.	8ee-\	8gg\
.	.	.	.	.	.	.	.	.	.	.	.	.	8dd\J	8ff\J
!	!	!	!	!	!	!	!	!	!	!	!	!	!LO:LB:g=original	!
=73	=73	=73	=73	=73	=73	=73	=73	=73	=73	=73	=73	=73	=73	=73
!	!	!	!	!	!	!	!	!	!	!	!	!	!	!LO:TX:t=P:problem= problem klamry łukowej
4E-\	.	.	4E-\	.	1r	.	1r	.	2ee-\	.	2gg\	.	4ee-\	12gg\L
.	.	.	.	.	.	.	.	.	.	.	.	.	.	12bb-\
.	.	.	.	.	.	.	.	.	.	.	.	.	.	12aa-\J
4A-\	.	7 5	4A-\	.	.	.	.	.	.	.	.	.	2ee-\	12gg\L
.	.	.	.	.	.	.	.	.	.	.	.	.	.	12ff\
.	.	.	.	.	.	.	.	.	.	.	.	.	.	12ee-\J
!	!	!	!	!	!	!	!	!	!	!	!LO:TX:a:t=t.	!	!	!
4B-\	.	4	4B-\	.	.	.	.	.	4.b-/	.	2ff\	.	.	8b-/
!	!	!	!	!	!	!	!	!	!	!	!	!	!	!LO:TX:a:t=t.
.	.	.	.	.	.	.	.	.	.	.	.	.	.	4.ff\
!	!	!	!	!	!	!	!	!	!	!	!	!	!LO:TX:a:t=t.	!
4BB-/	.	3	4BB-/	.	.	.	.	.	.	.	.	.	4dd\	.
.	.	.	.	.	.	.	.	.	8b-/	.	.	.	.	.
=74	=74	=74	=74	=74	=74	=74	=74	=74	=74	=74	=74	=74	=74	=74
4r	.	.	4r	.	1r	.	1r	.	4g/	.	4ee-\	.	4ee-\	8ee-\L
.	.	.	.	.	.	.	.	.	.	.	.	.	.	8cc\J
.	.	.	.	.	.	.	.	.	.	.	.	.	.	8qqb-/
4C/	.	n6	4C/	.	.	.	.	.	4r	.	4r	.	4e-/	2.an/
4C/	.	.	4C/	.	.	.	.	.	2r	.	2r	.	4e-/	.
4C/	.	.	4C/	.	.	.	.	.	.	.	.	.	4e-/	.
=75	=75	=75	=75	=75	=75	=75	=75	=75	=75	=75	=75	=75	=75	=75
!	!	!	!	!	!	!	!	!	!LO:TX:a:t=2.	!	!LO:TX:a:t=2.	!	!	!
.	.	.	.	.	.	.	.	.	.	.	.	.	.	8qqgg/
4r	.	.	4r	.	1r	.	1r	.	1r	.	1r	.	4r	8ff\L
.	.	.	.	.	.	.	.	.	.	.	.	.	.	8qqee-/
.	.	.	.	.	.	.	.	.	.	.	.	.	.	8dd\J
.	.	.	.	.	.	.	.	.	.	.	.	.	.	8qqcc/
8D/L	.	6	8D/L	.	.	.	.	.	.	.	.	.	8f/L	2b-/
8C/J	.	.	8C/J	.	.	.	.	.	.	.	.	.	8e-/J	.
4D/	.	.	4D/	.	.	.	.	.	.	.	.	.	4f/	.
4BB-/	.	-7r	4BB-/	.	.	.	.	.	.	.	.	.	4d/	4a-X/
!	!	!	!LO:LB:g=original	!	!	!	!	!	!	!	!	!	!	!
=76	=76	=76	=76	=76	=76	=76	=76	=76	=76	=76	=76	=76	=76	=76
!	!	!	!	!	!LO:TX:a:t=Da Capo Fino al Segno.	!	!LO:TX:a:t=Da Capo Fino al Segno.	!	!LO:TX:a:t=Da Capo Sino al Segno.	!	!LO:TX:a:t=Da Capo Sino al Segno.	!	!LO:TX:t=P:problem= problem klamry łukowej	!LO:TX:t=P:problem= problem klamry łukowej
4E-\	.	.	4E-\	.	1r	.	1r	.	1r	.	1r	.	12e-/L	12g/L
.	.	.	.	.	.	.	.	.	.	.	.	.	12f/	12a-/
.	.	.	.	.	.	.	.	.	.	.	.	.	12g/J	12b-/J
!	!	!	!	!	!	!	!	!	!	!	!	!	!LO:TX:t=P:problem= problem klamry łukowej	!LO:TX:t=P:problem= problem klamry łukowej
4AA-/	.	6	4AA-/	.	.	.	.	.	.	.	.	.	12a-/L	12cc\L
.	.	.	.	.	.	.	.	.	.	.	.	.	12g/	12b-\
.	.	.	.	.	.	.	.	.	.	.	.	.	12f/J	12a-\J
4BB-/	.	6 4	4BB-/	.	.	.	.	.	.	.	.	.	4e-/	4g/
!	!	!	!	!	!	!	!	!	!	!	!	!	!LO:TX:a:t=Da Capo Fino al Segno.	!LO:TX:a:t=Da Capo Fino al Segno.
!LO:TX:a:t=Da Capo Fino al Segno.	!	!	!LO:TX:a:t=Da Capo Fino al Segno.	!	!	!	!	!	!	!	!	!	!LO:TX:a:t=t	!LO:TX:a:t=t
4BB-/	.	5 3	4BB-/	.	.	.	.	.	.	.	.	.	4d/	4f/
=77	=77	=77	=77	=77	=77	=77	=77	=77	=77	=77	=77	=77	=77	=77
1r	.	.	1r	.	1r	.	1r	.	1r	.	1r	.	1r	1r
==	==	==	==	==	==	==	==	==	==	==	==	==	==	==
*-	*-	*-	*-	*-	*-	*-	*-	*-	*-	*-	*-	*-	*-	*-
!!!system-decoration: [(s1,s2)][(s3,s4)][(s5,s6,s7)]s8
!!!RDF**kern: > = above
!!!RDF**kern: < = below
!!!ENC: Berenika Jozajtis
!!!END: 2022-02-13
!!!ENC: Jan Barakat
!!!END: 2022-02-21
